X:65
% %NRChange 2014-04-14
T:Sackpipl\aat
C:etter Carl Wahlstrom
M:4/4
L:1/8
K:D
%P:A
[V:1]DE|:~=F2 EF D2 EF|G2 FG E2 FG|A2 ~BA GFEF|{DE}D2D2A,2 DE |
[V:2]DE|:~D2 CD A,2 D=F|~E2 DE C2 DE|F2 GF EDCE|D2D2A,2 DE |
[V:1]~=F2EF D2 EF | ~G2 FG ~E2 FG| A2 ~BA GFEF|[1D6 DE :|[2D6 DF |]
[V:2]~D2 CD A,2 D=F|~E2 DE C2 DE|F2 GF EDCE|[1D6 DE :|[2D6 DE |]
%P:B
[V:1]|:A2 FA =cBGB | {=c}BA=ce {^c}d2 d=c|A2 FA =cBGB |{=c}BAAG FEFG|
[V:2]|:F3F AGEG |GFA=c A2 AG | F2 DF AGEG | GFFE DCDE |
[V:1]{F}A2 FA =cBGB | {=c}BA=ce {^c}d2 d=c|A2 ~BA GFEF|[1D6 DF :|[2D6|]
[V:2]F2 DF AGEG | GFA=c A3G|F2 GF EDCB,|[1A,6 DE :|[2 A,6 |]

